main-app/assets/one_value.svg

<?xml version="1.0" encoding="UTF-8" standalone="no"?>
<svg
   version="1.1"
   viewBox="0 0 10.717155 37.532"
   width="10.717155"
   height="37.532001"
   filter="invert(93%) hue-rotate(180deg)"
   class="excalidraw-svg"
   id="svg1"
   xmlns="http://www.w3.org/2000/svg"
   xmlns:svg="http://www.w3.org/2000/svg">
  <!-- svg-source:excalidraw -->
  <metadata
     id="metadata1" />
  <defs
     id="defs1">
    <style
       class="style-fonts"
       id="style1" />
  </defs>
  <g
     transform="matrix(0.47345101,0,0,0.47345101,0.49002179,9.8392589)"
     stroke="none"
     id="g1">
    <path
       fill="#1e1e1e"
       d="m -0.77,-0.71 q 0,0 0.78,-0.77 0.79,-0.77 1.5,-1.46 0.71,-0.68 1.44,-1.36 0.74,-0.67 1.5,-1.34 0.75,-0.67 1.47,-1.31 0.72,-0.63 1.33,-1.21 0.61,-0.58 1.09,-1.11 0.49,-0.53 0.88,-1 0.4,-0.48 0.74,-0.93 0.34,-0.46 0.72,-0.93 0.37,-0.46 0.89,-1.05 0.52,-0.59 1.33,-1.56 0.81,-0.97 1.24,-1.47 0.43,-0.51 0.89,-1.1 0.46,-0.6 0.77,-1.15 0.32,-0.54 0.55,-1.06 0.23,-0.51 0.34,-0.66 0.11,-0.15 0.25,-0.26 0.14,-0.12 0.31,-0.2 0.16,-0.07 0.34,-0.11 0.18,-0.04 0.36,-0.03 0.18,0 0.36,0.06 0.18,0.05 0.33,0.14 0.16,0.09 0.29,0.21 0.14,0.13 0.23,0.28 0.1,0.16 0.16,0.33 0.06,0.17 0.07,0.35 0.02,0.19 -0.01,0.37 -0.03,0.18 -0.1,0.34 -0.07,0.17 -0.09,-0.61 -0.01,-0.77 0.3,0.3 0.31,1.07 0.38,1.89 0.08,0.82 0.14,2.31 0.06,1.48 0.11,2.93 0.05,1.44 0.07,2.84 0.03,1.41 0.05,2.78 0.02,1.37 0.03,2.72 0,1.36 0,2.7 -0.01,1.33 0,2.65 0,1.31 0.02,2.62 0.03,1.3 0.06,2.52 0.04,1.22 0.06,2.31 0.03,1.09 0.05,2.26 0.03,1.17 0.09,1.88 0.07,0.71 0.1,1.55 0.04,0.84 0.08,1.55 0.04,0.71 0.06,1.42 0.01,0.71 0.03,1.44 0.02,0.73 0.02,1.51 0.01,0.77 0.02,1.57 0,0.8 0.02,1.53 0.01,0.74 0.02,1.46 0.01,0.72 0.02,1.45 0.01,0.73 -0.02,1.67 -0.03,0.93 -0.01,1.71 0.02,0.79 0.09,1.98 0.08,1.2 0.1,1.79 0.02,0.58 -0.16,3.01 -0.19,2.42 -0.3,3.71 -0.12,1.28 -0.18,2.24 -0.05,0.95 -0.01,2.02 0.04,1.08 0.07,1.89 0.04,0.81 0.08,1.62 0.04,0.8 0.09,1.45 0.06,0.66 0.28,1.15 0.22,0.48 0.3,1.14 0.09,0.67 0.23,2.66 0.14,1.99 0.1,2.25 -0.04,0.25 -0.16,0.48 -0.12,0.23 -0.3,0.41 -0.19,0.17 -0.42,0.28 -0.23,0.11 -0.49,0.14 -0.26,0.03 -0.51,-0.02 -0.25,-0.06 -0.47,-0.19 -0.22,-0.13 -0.39,-0.32 -0.17,-0.2 -0.27,-0.44 -0.09,-0.24 -0.11,-0.49 -0.01,-0.26 0.05,-0.51 0.07,-0.25 0.21,-0.46 0.15,-0.22 0.35,-0.37 0.2,-0.16 0.45,-0.24 0.24,-0.09 0.5,-0.09 0.26,0 0.5,0.08 0.25,0.08 0.45,0.23 0.21,0.16 0.35,0.37 0.15,0.21 0.22,0.46 0.07,0.25 0.06,0.51 -0.01,0.25 -0.11,0.49 -0.09,0.24 -0.26,0.44 -0.16,0.2 -0.38,0.33 -0.22,0.14 -0.47,0.19 -0.25,0.06 -0.51,0.03 -0.26,-0.02 -0.49,-0.13 -0.24,-0.1 -0.42,-0.28 -0.19,-0.18 -0.31,-0.4 -0.13,-0.23 -0.17,-0.48 -0.04,-0.26 -0.04,-0.26 0,0 -0.11,-1.8 -0.1,-1.8 -0.03,-2.42 0.06,-0.61 -0.15,-1.32 -0.2,-0.71 -0.18,-1.4 0.02,-0.69 0.08,-1.54 0.06,-0.85 0.15,-1.65 0.09,-0.8 0.15,-1.33 0.06,-0.53 0.12,-1.07 0.06,-0.54 0.08,-1.5 0.03,-0.96 0.04,-2.25 0,-1.29 0.04,-3.65 0.04,-2.37 0.06,-2.95 0.02,-0.58 0.02,-1.24 0.01,-0.66 0.02,-1.19 0.01,-0.54 0,-1.34 -0.01,-0.8 -0.04,-1.73 -0.03,-0.94 -0.02,-1.67 0.01,-0.73 0.02,-1.45 0.01,-0.72 0.03,-1.46 0.01,-0.74 0.02,-1.53 0.01,-0.8 0.02,-1.58 0.01,-0.79 0.04,-1.53 0.03,-0.74 0.07,-1.42 0.05,-0.69 0.08,-1.4 0.04,-0.71 0.06,-1.54 0.03,-0.84 0.07,-1.54 0.04,-0.71 0.01,-1.88 Q 19.06,10.39 19.02,9.3 18.98,8.22 18.92,7 18.87,5.77 18.82,4.46 18.77,3.15 18.73,1.83 18.69,0.51 18.65,-0.81 q -0.04,-1.32 -0.11,-2.66 -0.07,-1.34 -0.18,-2.69 -0.1,-1.36 -0.24,-2.72 -0.14,-1.37 -0.34,-2.77 -0.2,-1.4 -0.45,-2.83 -0.26,-1.42 -0.43,-2.64 -0.18,-1.22 -0.25,-2.07 -0.07,-0.84 0.04,-0.99 0.11,-0.15 0.25,-0.26 0.14,-0.12 0.31,-0.2 0.16,-0.07 0.34,-0.11 0.18,-0.04 0.36,-0.03 0.18,0 0.36,0.06 0.18,0.05 0.33,0.14 0.16,0.09 0.29,0.21 0.14,0.13 0.23,0.28 0.1,0.16 0.16,0.33 0.06,0.17 0.07,0.35 0.02,0.18 -0.01,0.37 -0.03,0.18 -0.1,0.34 -0.07,0.17 -0.21,0.37 -0.15,0.19 -0.45,0.66 -0.29,0.46 -0.72,0.97 -0.42,0.5 -0.97,1.05 -0.54,0.55 -0.98,1.03 -0.45,0.49 -1.3,1.42 -0.85,0.94 -1.36,1.52 -0.52,0.59 -0.92,1.01 -0.41,0.42 -0.83,0.87 -0.42,0.45 -0.89,0.9 -0.47,0.45 -1.03,0.97 -0.56,0.52 -1.21,1.07 -0.64,0.55 -1.35,1.18 -0.7,0.62 -1.43,1.31 Q 4.9,-3.68 4.21,-3 3.51,-2.33 2.85,-1.65 2.19,-0.97 1.48,-0.12 0.77,0.71 0.67,0.79 0.57,0.87 0.46,0.93 0.35,0.98 0.22,1.01 0.1,1.04 -0.02,1.04 -0.14,1.03 -0.27,1 -0.39,0.97 -0.5,0.91 -0.61,0.85 -0.7,0.76 -0.8,0.67 -0.87,0.57 -0.94,0.46 -0.98,0.34 -1.02,0.22 -1.03,0.1 q -0.01,-0.12 0,-0.24 0.02,-0.13 0.07,-0.25 0.05,-0.11 0.12,-0.22 z"
       id="path1" />
  </g>
</svg>

<svg version="1.1" xmlns="http://www.w3.org/2000/svg" viewBox="0 0 22.035312256625502 78.36928266307086" width="22.035312256625502" height="78.36928266307086" filter="invert(93%) hue-rotate(180deg)" class="excalidraw-svg"><!-- svg-source:excalidraw --><metadata></metadata><defs><style class="style-fonts">
      </style></defs><g transform="translate(1 20.360854297107153) rotate(0 10.017656128312751 18.82378703442828)" stroke="none"><path fill="#1e1e1e" d="M -0.77,-0.71 Q -0.77,-0.71 0.01,-1.48 0.80,-2.25 1.51,-2.94 2.22,-3.62 2.95,-4.30 3.69,-4.97 4.45,-5.64 5.20,-6.31 5.92,-6.95 6.64,-7.58 7.25,-8.16 7.86,-8.74 8.34,-9.27 8.83,-9.80 9.22,-10.27 9.62,-10.75 9.96,-11.20 10.30,-11.66 10.68,-12.13 11.05,-12.59 11.57,-13.18 12.09,-13.77 12.90,-14.74 13.71,-15.71 14.14,-16.21 14.57,-16.72 15.03,-17.31 15.49,-17.91 15.80,-18.46 16.12,-19.00 16.35,-19.52 16.58,-20.03 16.69,-20.18 16.80,-20.33 16.94,-20.44 17.08,-20.56 17.25,-20.64 17.41,-20.71 17.59,-20.75 17.77,-20.79 17.95,-20.78 18.13,-20.78 18.31,-20.72 18.49,-20.67 18.64,-20.58 18.80,-20.49 18.93,-20.37 19.07,-20.24 19.16,-20.09 19.26,-19.93 19.32,-19.76 19.38,-19.59 19.39,-19.41 19.41,-19.22 19.38,-19.04 19.35,-18.86 19.28,-18.70 19.21,-18.53 19.19,-19.31 19.18,-20.08 19.49,-19.01 19.80,-17.94 19.87,-17.12 19.95,-16.30 20.01,-14.81 20.07,-13.33 20.12,-11.88 20.17,-10.44 20.19,-9.04 20.22,-7.63 20.24,-6.26 20.26,-4.89 20.27,-3.54 20.27,-2.18 20.27,-0.84 20.26,0.49 20.27,1.81 20.27,3.12 20.29,4.43 20.32,5.73 20.35,6.95 20.39,8.17 20.41,9.26 20.44,10.35 20.46,11.52 20.49,12.69 20.55,13.40 20.62,14.11 20.65,14.95 20.69,15.79 20.73,16.50 20.77,17.21 20.79,17.92 20.80,18.63 20.82,19.36 20.84,20.09 20.84,20.87 20.85,21.64 20.86,22.44 20.86,23.24 20.88,23.97 20.89,24.71 20.90,25.43 20.91,26.15 20.92,26.88 20.93,27.61 20.90,28.55 20.87,29.48 20.89,30.26 20.91,31.05 20.98,32.24 21.06,33.44 21.08,34.03 21.10,34.61 20.92,37.04 20.73,39.46 20.62,40.75 20.50,42.03 20.44,42.99 20.39,43.94 20.43,45.01 20.47,46.09 20.50,46.90 20.54,47.71 20.58,48.52 20.62,49.32 20.67,49.97 20.73,50.63 20.95,51.12 21.17,51.60 21.25,52.26 21.34,52.93 21.48,54.92 21.62,56.91 21.58,57.17 21.54,57.42 21.42,57.65 21.30,57.88 21.12,58.06 20.93,58.23 20.70,58.34 20.47,58.45 20.21,58.48 19.95,58.51 19.70,58.46 19.45,58.40 19.23,58.27 19.01,58.14 18.84,57.95 18.67,57.75 18.57,57.51 18.48,57.27 18.46,57.02 18.45,56.76 18.51,56.51 18.58,56.26 18.72,56.05 18.87,55.83 19.07,55.68 19.27,55.52 19.52,55.44 19.76,55.35 20.02,55.35 20.28,55.35 20.52,55.43 20.77,55.51 20.97,55.66 21.18,55.82 21.32,56.03 21.47,56.24 21.54,56.49 21.61,56.74 21.60,57.00 21.59,57.25 21.49,57.49 21.40,57.73 21.23,57.93 21.07,58.13 20.85,58.26 20.63,58.40 20.38,58.45 20.13,58.51 19.87,58.48 19.61,58.46 19.38,58.35 19.14,58.25 18.96,58.07 18.77,57.89 18.65,57.67 18.52,57.44 18.48,57.19 18.44,56.93 18.44,56.93 18.44,56.93 18.33,55.13 18.23,53.33 18.30,52.71 18.36,52.10 18.15,51.39 17.95,50.68 17.97,49.99 17.99,49.30 18.05,48.45 18.11,47.60 18.20,46.80 18.29,46.00 18.35,45.47 18.41,44.94 18.47,44.40 18.53,43.86 18.55,42.90 18.58,41.94 18.59,40.65 18.59,39.36 18.63,37.00 18.67,34.63 18.69,34.05 18.71,33.47 18.71,32.81 18.72,32.15 18.73,31.62 18.74,31.08 18.73,30.28 18.72,29.48 18.69,28.55 18.66,27.61 18.67,26.88 18.68,26.15 18.69,25.43 18.70,24.71 18.72,23.97 18.73,23.23 18.74,22.44 18.75,21.64 18.76,20.86 18.77,20.07 18.80,19.33 18.83,18.59 18.87,17.91 18.92,17.22 18.95,16.51 18.99,15.80 19.01,14.97 19.04,14.13 19.08,13.43 19.12,12.72 19.09,11.55 19.06,10.39 19.02,9.30 18.98,8.22 18.92,7.00 18.87,5.77 18.82,4.46 18.77,3.15 18.73,1.83 18.69,0.51 18.65,-0.81 18.61,-2.13 18.54,-3.47 18.47,-4.81 18.36,-6.16 18.26,-7.52 18.12,-8.88 17.98,-10.25 17.78,-11.65 17.58,-13.05 17.33,-14.48 17.07,-15.90 16.90,-17.12 16.72,-18.34 16.65,-19.19 16.58,-20.03 16.69,-20.18 16.80,-20.33 16.94,-20.44 17.08,-20.56 17.25,-20.64 17.41,-20.71 17.59,-20.75 17.77,-20.79 17.95,-20.78 18.13,-20.78 18.31,-20.72 18.49,-20.67 18.64,-20.58 18.80,-20.49 18.93,-20.37 19.07,-20.24 19.16,-20.09 19.26,-19.93 19.32,-19.76 19.38,-19.59 19.39,-19.41 19.41,-19.23 19.38,-19.04 19.35,-18.86 19.28,-18.70 19.21,-18.53 19.07,-18.33 18.92,-18.14 18.62,-17.67 18.33,-17.21 17.90,-16.70 17.48,-16.20 16.93,-15.65 16.39,-15.10 15.95,-14.62 15.50,-14.13 14.65,-13.20 13.80,-12.26 13.29,-11.68 12.77,-11.09 12.37,-10.67 11.96,-10.25 11.54,-9.80 11.12,-9.35 10.65,-8.90 10.18,-8.45 9.62,-7.93 9.06,-7.41 8.41,-6.86 7.77,-6.31 7.06,-5.68 6.36,-5.06 5.63,-4.37 4.90,-3.68 4.21,-3.00 3.51,-2.33 2.85,-1.65 2.19,-0.97 1.48,-0.12 0.77,0.71 0.67,0.79 0.57,0.87 0.46,0.93 0.35,0.98 0.22,1.01 0.10,1.04 -0.02,1.04 -0.14,1.03 -0.27,1.00 -0.39,0.97 -0.50,0.91 -0.61,0.85 -0.70,0.76 -0.80,0.67 -0.87,0.57 -0.94,0.46 -0.98,0.34 -1.02,0.22 -1.03,0.10 -1.04,-0.02 -1.03,-0.14 -1.01,-0.27 -0.96,-0.39 -0.91,-0.50 -0.84,-0.61 -0.77,-0.71 -0.77,-0.71 L -0.77,-0.71 Z"></path></g></svg>
